;FLAVOR:Marlin
;TIME:12382
;Filament used: 9.44997m
;Layer height: 0.2
;MINX:44.699
;MINY:43.199
;MINZ:0.2
;MAXX:175.301
;MAXY:177.412
;MAXZ:18
;Generated with Cura_SteamEngine 5.2.1
M82 ;absolute extrusion mode
; Ender 3 Custom Start G-code
G92 E0 ; Reset Extruder
G28 ; Home all axes
M104 S175 ; Start heating up the nozzle most of the way
M190 S60 ; Start heating the bed, wait until target temperature reached
M109 S205 ; Finish heating the nozzle
G1 Z2.0 F3000 ; Move Z Axis up little to prevent scratching of Heat Bed
G1 X0.1 Y20 Z0.3 F5000.0 ; Move to start position
G1 X0.1 Y200.0 Z0.3 F1500.0 E15 ; Draw the first line
G1 X0.4 Y200.0 Z0.3 F5000.0 ; Move to side a little
G1 X0.4 Y20 Z0.3 F1500.0 E30 ; Draw the second line
G92 E0 ; Reset Extruder
G1 Z2.0 F3000 ; Move Z Axis up little to prevent scratching of Heat Bed
G1 X5 Y20 Z0.3 F5000.0 ; Move over to prevent blob squish
G92 E0
G92 E0
G1 F2400 E-6
;LAYER_COUNT:90
;LAYER:0
M106 S178.5
G0 F3000 X46.488 Y49.52 Z0.2
;TYPE:SKIRT
G1 F2400 E0
G1 F1200 X50.745 Y45.259 E0.20434
G1 X51.231 Y44.788 E0.2273
G1 X51.738 Y44.352 E0.24998
G1 X52.294 Y43.979 E0.2727
G1 X52.89 Y43.676 E0.29538
G1 X53.518 Y43.445 E0.31808
G1 X54.169 Y43.292 E0.34077
G1 X55.028 Y43.21 E0.37004
G1 X55.686 Y43.199 E0.39237
G1 X164.249 Y43.2 E4.0754
G1 X164.951 Y43.21 E4.09922
G1 X165.618 Y43.259 E4.12191
G1 X166.274 Y43.388 E4.14459
G1 X166.911 Y43.594 E4.1673
G1 X167.518 Y43.874 E4.18998
G1 X168.088 Y44.225 E4.21269
G1 X168.733 Y44.754 E4.24099
G1 X169.049 Y45.055 E4.2558
G1 X173.237 Y49.24 E4.45666
G1 X173.709 Y49.726 E4.47964
G1 X174.146 Y50.233 E4.50235
G1 X174.519 Y50.789 E4.52506
G1 X174.823 Y51.385 E4.54776
G1 X175.054 Y52.013 E4.57046
G1 X175.208 Y52.664 E4.59315
G1 X175.291 Y53.538 E4.62294
G1 X175.301 Y54.186 E4.64493
G1 X175.3 Y107.749 E6.46207
G1 X175.29 Y108.451 E6.48589
G1 X175.241 Y109.118 E6.50858
G1 X175.112 Y109.774 E6.53126
G1 X174.906 Y110.411 E6.55397
G1 X174.626 Y111.018 E6.57665
G1 X174.275 Y111.588 E6.59936
G1 X173.797 Y112.179 E6.62514
G1 X173.512 Y112.48 E6.63921
G1 X169.252 Y116.745 E6.84371
G1 X167.61 Y118.333 E6.92121
G1 X165.676 Y120.269 E7.01404
G1 X163.872 Y122.179 E7.10317
G1 X162.075 Y124.195 E7.19479
G1 X160.364 Y126.224 E7.28484
G1 X158.678 Y128.344 E7.37673
G1 X157.11 Y130.436 E7.46542
G1 X155.553 Y132.638 E7.55692
G1 X154.086 Y134.845 E7.64682
G1 X152.672 Y137.107 E7.73732
G1 X151.321 Y139.409 E7.82787
G1 X150.033 Y141.752 E7.91858
G1 X148.804 Y144.149 E8.00996
G1 X147.661 Y146.545 E8.10002
G1 X146.573 Y149 E8.19112
G1 X145.555 Y151.484 E8.28219
G1 X144.615 Y153.976 E8.37255
G1 X143.752 Y156.478 E8.46234
G1 X142.955 Y159.017 E8.55262
G1 X142.217 Y161.625 E8.64457
G1 X141.57 Y164.185 E8.73415
G1 X140.988 Y166.799 E8.825
G1 X140.477 Y169.449 E8.91656
G1 X140.212 Y170.996 E8.96981
G1 X140.06 Y171.648 E8.99252
G1 X139.831 Y172.277 E9.01523
G1 X139.529 Y172.874 E9.03793
G1 X139.209 Y173.37 E9.05795
G1 X138.747 Y173.947 E9.08303
G1 X138.269 Y174.415 E9.10572
G1 X137.739 Y174.823 E9.12842
G1 X137.164 Y175.165 E9.15111
G1 X136.552 Y175.436 E9.17382
G1 X135.912 Y175.632 E9.19653
G1 X135.254 Y175.75 E9.21921
G1 X134.791 Y175.786 E9.23496
G1 X134.369 Y175.797 E9.24928
G1 X128.409 Y175.8 E9.45148
G1 X125.749 Y175.838 E9.54173
G1 X123.063 Y175.952 E9.63293
G1 X120.41 Y176.14 E9.72316
G1 X117.744 Y176.404 E9.81405
G1 X115.083 Y176.745 E9.90506
G1 X112.015 Y177.233 E10.01045
G1 X111.427 Y177.336 E10.03071
G1 X110.762 Y177.412 E10.05341
G1 X110.093 Y177.408 E10.07611
G1 X109.532 Y177.342 E10.09527
G1 X108.067 Y177.095 E10.14568
G1 X105.395 Y176.688 E10.23737
G1 X102.719 Y176.358 E10.32884
G1 X100.082 Y176.108 E10.4187
G1 X97.394 Y175.929 E10.5101
G1 X94.748 Y175.828 E10.59993
G1 X92.413 Y175.8 E10.67915
G1 X86.107 Y175.8 E10.89308
G1 X85.325 Y175.789 E10.91962
G1 X84.658 Y175.74 E10.9423
G1 X84.002 Y175.611 E10.96499
G1 X83.365 Y175.405 E10.9877
G1 X82.758 Y175.125 E11.01038
G1 X82.188 Y174.774 E11.03309
G1 X81.664 Y174.357 E11.0558
G1 X81.194 Y173.882 E11.07847
G1 X80.769 Y173.34 E11.10184
G1 X80.375 Y172.703 E11.12725
G1 X80.094 Y172.096 E11.14994
G1 X79.888 Y171.459 E11.17266
G1 X79.796 Y171.041 E11.18718
G1 X79.609 Y169.998 E11.22312
G1 X79.493 Y169.295 E11.2473
G1 X78.994 Y166.726 E11.33608
G1 X78.408 Y164.095 E11.42752
G1 X77.752 Y161.513 E11.5179
G1 X77.026 Y158.956 E11.60808
G1 X76.215 Y156.38 E11.6997
G1 X75.344 Y153.862 E11.79009
G1 X74.412 Y151.399 E11.87943
G1 X73.384 Y148.895 E11.97126
G1 X72.304 Y146.466 E12.06144
G1 X71.157 Y144.069 E12.15159
G1 X69.924 Y141.668 E12.24316
G1 X68.649 Y139.351 E12.33288
G1 X67.284 Y137.027 E12.42432
G1 X65.88 Y134.784 E12.51409
G1 X64.393 Y132.555 E12.60499
G1 X62.851 Y130.377 E12.69552
G1 X61.243 Y128.236 E12.78636
G1 X59.585 Y126.154 E12.87665
G1 X57.863 Y124.113 E12.96725
G1 X56.081 Y122.121 E13.05792
G1 X54.262 Y120.196 E13.14777
G1 X52.352 Y118.287 E13.23939
G1 X51.256 Y117.244 E13.29071
G1 X50.832 Y116.829 E13.31084
G1 X46.82 Y112.817 E13.50333
G1 X46.288 Y112.268 E13.52926
G1 X45.852 Y111.761 E13.55195
G1 X45.479 Y111.205 E13.57466
G1 X45.176 Y110.609 E13.59734
G1 X44.945 Y109.981 E13.62005
G1 X44.792 Y109.33 E13.64273
G1 X44.71 Y108.472 E13.67197
G1 X44.699 Y107.814 E13.6943
G1 X44.7 Y54.251 E15.51144
G1 X44.71 Y53.549 E15.53526
G1 X44.759 Y52.882 E15.55795
G1 X44.888 Y52.226 E15.58063
G1 X45.094 Y51.589 E15.60334
G1 X45.374 Y50.982 E15.62602
G1 X45.725 Y50.412 E15.64873
G1 X46.203 Y49.821 E15.67452
G1 X46.488 Y49.52 E15.68858
G0 F3000 X46.771 Y49.802
G1 F1200 X51.023 Y45.546 E15.89268
G1 X51.509 Y45.075 E15.91564
G1 X51.999 Y44.656 E15.93751
G1 X52.537 Y44.301 E15.95938
G1 X53.115 Y44.015 E15.98126
G1 X53.723 Y43.802 E16.00311
G1 X54.354 Y43.667 E16.025
G1 X55.035 Y43.61 E16.04819
G1 X55.686 Y43.599 E16.07027
G1 X164.243 Y43.6 E19.75311
G1 X164.945 Y43.61 E19.77693
G1 X165.588 Y43.659 E19.7988
G1 X166.22 Y43.787 E19.82068
G1 X166.831 Y43.992 E19.84254
G1 X167.412 Y44.272 E19.86442
G1 X167.954 Y44.621 E19.88629
G1 X168.458 Y45.044 E19.90862
G1 X168.774 Y45.345 E19.92342
G1 X172.95 Y49.519 E20.12373
G1 X173.422 Y50.005 E20.14671
G1 X173.842 Y50.495 E20.16861
G1 X174.198 Y51.032 E20.19046
G1 X174.484 Y51.61 E20.21234
G1 X174.697 Y52.218 E20.2342
G1 X174.833 Y52.848 E20.25606
G1 X174.891 Y53.544 E20.27976
G1 X174.901 Y54.186 E20.30154
G1 X174.9 Y107.743 E22.11848
G1 X174.89 Y108.445 E22.1423
G1 X174.841 Y109.088 E22.16417
G1 X174.713 Y109.72 E22.18605
G1 X174.508 Y110.331 E22.20791
G1 X174.228 Y110.912 E22.22979
G1 X173.879 Y111.454 E22.25166
G1 X173.503 Y111.907 E22.27164
G1 X173.229 Y112.198 E22.2852
G1 X168.974 Y116.457 E22.48944
G1 X167.322 Y118.055 E22.56741
G1 X165.402 Y119.977 E22.65958
G1 X163.563 Y121.924 E22.75043
G1 X161.771 Y123.934 E22.84179
G1 X160.043 Y125.984 E22.93275
G1 X158.377 Y128.079 E23.02356
G1 X156.787 Y130.199 E23.11346
G1 X155.226 Y132.408 E23.20522
G1 X153.735 Y134.65 E23.29657
G1 X152.34 Y136.882 E23.38586
G1 X150.945 Y139.26 E23.47939
G1 X149.685 Y141.554 E23.56818
G1 X148.445 Y143.973 E23.6604
G1 X147.292 Y146.39 E23.75125
G1 X146.208 Y148.835 E23.84199
G1 X145.187 Y151.327 E23.93335
G1 X144.235 Y153.853 E24.02493
G1 X143.376 Y156.339 E24.11416
G1 X142.573 Y158.897 E24.20512
G1 X141.83 Y161.524 E24.29773
G1 X141.186 Y164.072 E24.38689
G1 X140.591 Y166.742 E24.4797
G1 X140.088 Y169.348 E24.56974
G1 X139.818 Y170.929 E24.62415
G1 X139.67 Y171.556 E24.64601
G1 X139.445 Y172.161 E24.6679
G1 X139.148 Y172.733 E24.68977
G1 X138.839 Y173.194 E24.7086
G1 X138.435 Y173.696 E24.73046
G1 X137.971 Y174.144 E24.75234
G1 X137.456 Y174.531 E24.77419
G1 X136.896 Y174.852 E24.79609
G1 X136.302 Y175.101 E24.81794
G1 X135.681 Y175.274 E24.83981
G1 X134.777 Y175.386 E24.87072
G1 X134.369 Y175.397 E24.88456
G1 X128.404 Y175.4 E25.08693
G1 X125.726 Y175.438 E25.17779
G1 X123.053 Y175.551 E25.26855
G1 X120.379 Y175.741 E25.3595
G1 X117.687 Y176.008 E25.45127
G1 X115.035 Y176.347 E25.54197
G1 X111.948 Y176.839 E25.64802
G1 X111.358 Y176.942 E25.66834
G1 X110.717 Y177.014 E25.69022
G1 X110.072 Y177.005 E25.71211
G1 X109.598 Y176.948 E25.7283
G1 X108.128 Y176.701 E25.77887
G1 X105.432 Y176.29 E25.87139
G1 X102.77 Y175.961 E25.96239
G1 X100.113 Y175.709 E26.05293
G1 X97.399 Y175.528 E26.14521
G1 X94.767 Y175.428 E26.23457
G1 X92.418 Y175.4 E26.31426
G1 X86.107 Y175.4 E26.52837
G1 X85.331 Y175.389 E26.5547
G1 X84.688 Y175.34 E26.57657
G1 X84.056 Y175.212 E26.59845
G1 X83.445 Y175.007 E26.62031
G1 X82.864 Y174.727 E26.64219
G1 X82.322 Y174.378 E26.66406
G1 X81.828 Y173.964 E26.68593
G1 X81.388 Y173.493 E26.7078
G1 X81.054 Y173.042 E26.72683
G1 X80.716 Y172.493 E26.74871
G1 X80.45 Y171.906 E26.77057
G1 X80.258 Y171.291 E26.79243
G1 X80.19 Y170.971 E26.80353
G1 X80.004 Y169.933 E26.8393
G1 X79.893 Y169.26 E26.86244
G1 X79.377 Y166.6 E26.95437
G1 X78.808 Y164.047 E27.0431
G1 X78.138 Y161.411 E27.13537
G1 X77.399 Y158.809 E27.22714
G1 X76.603 Y156.277 E27.31718
G1 X75.72 Y153.727 E27.40873
G1 X74.78 Y151.242 E27.49886
G1 X73.749 Y148.73 E27.59098
G1 X72.667 Y146.296 E27.68135
G1 X71.516 Y143.892 E27.77177
G1 X70.287 Y141.499 E27.86304
G1 X68.994 Y139.15 E27.954
G1 X67.625 Y136.818 E28.04574
G1 X66.208 Y134.556 E28.13629
G1 X64.72 Y132.324 E28.2273
G1 X63.182 Y130.152 E28.31759
G1 X61.56 Y127.992 E28.40923
G1 X59.887 Y125.893 E28.50029
G1 X58.168 Y123.854 E28.59076
G1 X56.386 Y121.861 E28.68146
G1 X54.536 Y119.904 E28.77283
G1 X52.628 Y117.997 E28.86434
G1 X51.536 Y116.959 E28.91546
G1 X51.154 Y116.585 E28.93359
G1 X47.046 Y112.476 E29.13071
G1 X46.575 Y111.99 E29.15367
G1 X46.156 Y111.5 E29.17554
G1 X45.801 Y110.962 E29.19741
G1 X45.515 Y110.384 E29.21929
G1 X45.302 Y109.776 E29.24114
G1 X45.167 Y109.145 E29.26303
G1 X45.11 Y108.464 E29.28622
G1 X45.099 Y107.814 E29.30827
G1 X45.1 Y54.257 E31.12521
G1 X45.11 Y53.555 E31.14903
G1 X45.159 Y52.912 E31.17091
G1 X45.287 Y52.28 E31.19278
G1 X45.492 Y51.669 E31.21465
G1 X45.772 Y51.088 E31.23653
G1 X46.121 Y50.546 E31.2584
G1 X46.497 Y50.093 E31.27837
G1 X46.771 Y49.802 E31.29193
G1 F2400 E25.29193
G0 F3000 X109.922 Y57.073
G1 F2400 E31.29193
G1 F1200 X110.038 Y57.035 E31.29607
G1 X110.11 Y57.135 E31.30025
G1 X110.09 Y57.197 E31.30246
G1 X109.974 Y57.235 E31.3066
G1 X109.902 Y57.135 E31.31078
G1 X109.922 Y57.073 E31.31299
G0 F3000 X109.582 Y56.826
G1 F1200 X109.844 Y56.635 E31.32399
G1 X110.168 Y56.635 E31.33498
G1 X110.43 Y56.826 E31.34598
G1 X110.53 Y57.135 E31.357
G1 X110.43 Y57.444 E31.36802
G1 X110.168 Y57.635 E31.37902
G1 X109.844 Y57.635 E31.39001
G1 X109.582 Y57.444 E31.40101
G1 X109.482 Y57.135 E31.41203
G1 X109.582 Y56.826 E31.42305
G0 F3000 X109.241 Y56.58
G1 F1200 X109.715 Y56.235 E31.44294
G1 X110.297 Y56.235 E31.46268
G1 X110.771 Y56.58 E31.48257
G1 X110.952 Y57.135 E31.50237
G1 X110.771 Y57.69 E31.52218
G1 X110.297 Y58.035 E31.54207
G1 X109.715 Y58.035 E31.56181
G1 X109.241 Y57.69 E31.5817
G1 X109.06 Y57.135 E31.60151
G1 X109.241 Y56.58 E31.62131
G1 F2400 E25.62131
G0 F3000 X109.71 Y98.966
G1 F2400 E31.62131
G1 F1200 X110.292 Y98.966 E31.64105
G1 X110.766 Y99.311 E31.66094
G1 X110.947 Y99.866 E31.68075
G1 X110.766 Y100.421 E31.70055
G1 X110.292 Y100.766 E31.72044
G1 X109.71 Y100.766 E31.74019
G1 X109.236 Y100.421 E31.76008
G1 X109.055 Y99.866 E31.77988
G1 X109.236 Y99.311 E31.79968
G1 X109.71 Y98.966 E31.81957
G0 F3000 X109.839 Y99.366
G1 F1200 X110.163 Y99.366 E31.83057
G1 X110.425 Y99.557 E31.84156
G1 X110.525 Y99.866 E31.85258
G1 X110.425 Y100.175 E31.8636
G1 X110.163 Y100.366 E31.8746
G1 X109.839 Y100.366 E31.88559
G1 X109.577 Y100.175 E31.89659
G1 X109.477 Y99.866 E31.90761
G1 X109.577 Y99.557 E31.91863
G1 X109.839 Y99.366 E31.92963
G0 F3000 X110.033 Y99.766
G1 F1200 X110.105 Y99.866 E31.93381
G1 X110.085 Y99.928 E31.93602
G1 X109.969 Y99.966 E31.94016
G1 X109.897 Y99.866 E31.94434
G1 X109.917 Y99.804 E31.94655
G1 X110.033 Y99.766 E31.95069
G1 F2400 E25.95069
;MESH:universal-door-slider.stl
G0 F3000 X110.033 Y103.134
G0 X110.033 Y104.199
G0 X59.221 Y105.115
;TYPE:WALL-INNER
G1 F2400 E31.95069
G1 F900 X58.803 Y104.874 E31.96706
G1 X58.626 Y104.697 E31.97555
G1 X58.554 Y104.604 E31.97954
G1 X58.385 Y104.279 E31.99197
G1 X58.301 Y103.967 E32.00293
G1 X58.301 Y53.201 E33.72519
G1 X58.37 Y52.763 E33.74023
G1 X58.526 Y52.438 E33.75246
G1 X58.804 Y52.124 E33.76669
G1 X59.21 Y51.889 E33.7826
G1 X59.532 Y51.801 E33.79392
G1 X160.299 Y51.801 E37.21248
G1 X160.79 Y51.889 E37.2294
G1 X161.196 Y52.125 E37.24533
G1 X161.474 Y52.438 E37.25954
G1 X161.63 Y52.763 E37.27177
G1 X161.7 Y53.201 E37.28681
G1 X161.699 Y103.987 E39.00975
G1 X161.516 Y104.493 E39.028
G1 X161.375 Y104.698 E39.03644
G1 X161.198 Y104.875 E39.04493
G1 X160.779 Y105.115 E39.06131
G1 X160.467 Y105.199 E39.07228
G1 X59.533 Y105.199 E42.4965
G1 X59.221 Y105.115 E42.50746
G0 F3000 X59.581 Y104.799
G1 F900 X59.205 Y104.668 E42.52097
G1 X58.993 Y104.507 E42.53
G1 X58.882 Y104.374 E42.53587
G1 X58.761 Y104.142 E42.54475
G1 X58.701 Y103.92 E42.55255
G1 X58.701 Y53.201 E44.27321
G1 X58.75 Y52.888 E44.28396
G1 X58.862 Y52.656 E44.2927
G1 X59.06 Y52.432 E44.30284
G1 X59.35 Y52.263 E44.31423
G1 X59.58 Y52.201 E44.32231
G1 X160.299 Y52.201 E47.73924
G1 X160.65 Y52.264 E47.75133
G1 X160.94 Y52.432 E47.7627
G1 X161.138 Y52.656 E47.77285
G1 X161.25 Y52.888 E47.78159
G1 X161.3 Y53.201 E47.79234
G1 X161.299 Y103.919 E49.51297
G1 X161.239 Y104.142 E49.5208
G1 X161.068 Y104.441 E49.53249
G1 X160.941 Y104.568 E49.53858
G1 X160.642 Y104.739 E49.55026
G1 X160.42 Y104.799 E49.55807
G1 X59.581 Y104.799 E52.97906
G0 F3000 X55.705 Y111.801
G1 F900 X164.295 Y111.801 E56.66302
G1 X168.301 Y107.795 E56.85521
G1 X168.301 Y55.572 E58.6269
G1 X168.301 Y54.205 E58.67327
G1 X164.295 Y50.2 E58.86545
G1 X55.705 Y50.199 E62.5494
G1 X51.699 Y54.205 E62.7416
G1 X51.699 Y107.795 E64.55966
G1 X55.705 Y111.801 E64.75186
G0 F3000 X55.54 Y112.201
G1 F900 X164.46 Y112.201 E68.447
G1 X168.701 Y107.96 E68.65048
G1 X168.701 Y55.572 E70.42776
G1 X168.701 Y54.04 E70.47973
G1 X164.46 Y49.8 E70.68318
G1 X55.54 Y49.799 E74.37833
G1 X51.299 Y54.04 E74.5818
G1 X51.299 Y107.96 E76.41106
G1 X55.54 Y112.201 E76.61453
G0 F3000 X55.374 Y112.601
G1 F900 X164.626 Y112.601 E80.32094
G1 X169.101 Y108.126 E80.53564
G1 X169.101 Y55.572 E82.31855
G1 X169.101 Y53.874 E82.37616
G1 X164.626 Y49.4 E82.59083
G1 X55.374 Y49.399 E86.29724
G1 X50.899 Y53.874 E86.51194
G1 X50.899 Y108.126 E88.35246
G1 X55.374 Y112.601 E88.56716
G0 F3000 X55.208 Y113.001
;TYPE:WALL-OUTER
G1 F900 X164.792 Y113.001 E92.28484
G1 X169.501 Y108.292 E92.51076
G1 X169.501 Y55.572 E94.29931
G1 X169.501 Y53.708 E94.36254
G1 X164.792 Y49 E94.58845
G1 X55.208 Y48.999 E98.30612
G1 X50.499 Y53.708 E98.53205
G1 X50.499 Y108.292 E100.38383
G1 X55.208 Y113.001 E100.60976
G1 F2400 E94.60976
G0 F3000 X55.494 Y112.309
G0 X160.374 Y104.699
G1 F2400 E100.60976
G0 F3000 X160.374 Y104.399
;TYPE:WALL-INNER
G1 F900 X59.628 Y104.399 E104.0276
G1 X59.403 Y104.321 E104.03568
G1 X59.209 Y104.144 E104.04459
G1 X59.101 Y103.874 E104.05445
G1 X59.101 Y53.201 E105.77355
G1 X59.13 Y53.013 E105.78
G1 X59.316 Y52.739 E105.79124
G1 X59.627 Y52.601 E105.80278
G1 X160.299 Y52.601 E109.21811
G1 X160.51 Y52.639 E109.22539
G1 X160.684 Y52.74 E109.23221
G1 X160.87 Y53.013 E109.24342
G1 X160.9 Y53.201 E109.24988
G1 X160.899 Y103.88 E110.96918
G1 X160.821 Y104.097 E110.977
G1 X160.685 Y104.261 E110.98423
G1 X160.374 Y104.399 E110.99577
G1 F2400 E104.99577
G0 F3000 X160.374 Y104.699
G0 X58.873 Y104.627
G0 X58.801 Y103.914
G1 F2400 E110.99577
G0 F3000 X59.537 Y103.914
;TYPE:WALL-OUTER
G1 F900 X59.503 Y103.834 E110.99872
G1 X59.501 Y53.151 E112.71816
G1 X59.572 Y53.047 E112.72243
G1 X59.666 Y53.003 E112.72595
